packages/icons/svg/Fill/close-circle.svg

<svg fill="none" height="24" viewBox="0 0 24 24" width="24" xmlns="http://www.w3.org/2000/svg"><path clip-rule="evenodd" d="m14.707 13.2929c.391.391.391 1.023 0 1.414-.195.195-.451.293-.707.293s-.512-.098-.707-.293l-1.293-1.293-1.293 1.293c-.195.195-.451.293-.70701.293-.256 0-.512-.098-.707-.293-.391-.391-.391-1.023 0-1.414l1.29301-1.293-1.29301-1.293c-.391-.391-.391-1.02297 0-1.41397s1.02301-.391 1.41401 0l1.293 1.29297 1.293-1.29297c.391-.391 1.023-.391 1.414 0s.391 1.02297 0 1.41397l-1.293 1.293zm-2.707-11.2929c-5.51398 0-9.99998 4.486-9.99998 10s4.486 10 9.99998 10c5.514 0 10-4.486 10-10s-4.486-10-10-10z" fill="#6b7280" fill-rule="evenodd"/></svg>

<svg width="24" height="24" viewBox="0 0 24 24" fill="none" xmlns="http://www.w3.org/2000/svg">
<g id="Icon/Fill/close-circle">
<path id="Mask" fill-rule="evenodd" clip-rule="evenodd" d="M14.707 13.2929C15.098 13.6839 15.098 14.3159 14.707 14.7069C14.512 14.9019 14.256 14.9999 14 14.9999C13.744 14.9999 13.488 14.9019 13.293 14.7069L12 13.4139L10.707 14.7069C10.512 14.9019 10.256 14.9999 10 14.9999C9.744 14.9999 9.488 14.9019 9.293 14.7069C8.902 14.3159 8.902 13.6839 9.293 13.2929L10.586 11.9999L9.293 10.7069C8.902 10.3159 8.902 9.68391 9.293 9.29291C9.684 8.90191 10.316 8.90191 10.707 9.29291L12 10.5859L13.293 9.29291C13.684 8.90191 14.316 8.90191 14.707 9.29291C15.098 9.68391 15.098 10.3159 14.707 10.7069L13.414 11.9999L14.707 13.2929ZM12 1.99991C6.486 1.99991 2 6.48591 2 11.9999C2 17.5139 6.486 21.9999 12 21.9999C17.514 21.9999 22 17.5139 22 11.9999C22 6.48591 17.514 1.99991 12 1.99991Z" fill="#000000"/>
</g>
</svg>
